!!!!SEGMENT: pl-kk--kk-i-1--046_anonim--communio-domus-mea.krn
!!!cenid: 15xx:759
!!!COM: Anonim
!!!COM-rismID: pe30004985
!!!CDT:
!!!CNT:
!!!OTL: Communio/Domus mea
!!!PDT:
!!!AGN:
!!!YEC: Copyright 2022 Narodowy Instytut Fryderyka Chopina (https://polishscores.org)
!!!YEM: License CC-BY-4.0 (https://creativecommons.org/licenses/by/4.0)
!!!SMS-siglum: PL-Kk
!!!SMS-shelfmark: Kk.I.1
!!!SMS-shelfwork: 046 W
!!!SMS-variant:
!!!SMS-altvar:
!!!NIFC-rismSourceID: 300257954
!!!NIFC-rismChildID: 300258000
!!!NIFC-islandoraID: pl-kk:1
!!!URL-pdf-islandora: https://repozytorium.nifc.pl/islandora/object/pl-kk%3A1/datastream/PDF/view
!!!URL-scan: https://polish.musicsources.pl/pl/lokalizacje/galeria/rekopisy/5736 @EN{Scan on Polish Music Sources Website} @PL{Skany w portalu Dziedzictwo Muzyki Polskiej w otwartym dostępie}
!!!IIIF: https://repozytorium.nifc.pl/islandora/object/pl-kk%3A1/datastream/IIIF/view
!!!ONB-nifc: UWAGA: Cantus (s. 143r-v, skan 0145-0146), Altus (s. 138r-v, skan 0331-0332), Tenor (s. 117v-118r, skan 0508), Bassus (s. 130v-131r, skan 0693).
!!!AIN: 1 alto 1 bass 1 soprn 1 tenor
!!!key: F
**kern	**text	**kern	**text	**kern	**text	**kern	**text
*part4	*	*part3	*	*part2	*	*part1	*
*staff4	*	*staff3	*	*staff2	*	*staff1	*
*I"BASSVS	*	*I"TENOR	*	*I"ALTVS	*	*I"CANTVS	*
*I'B	*	*I'T	*	*I'A	*	*I'C	*
*ICvox	*	*ICvox	*	*ICvox	*	*ICvox	*
*Ibass	*	*Itenor	*	*Ialto	*	*Isoprn	*
*clefF4	*	*clefC4	*	*clefC4	*	*clefC3	*
*k[b-]	*	*k[b-]	*	*k[b-]	*	*k[b-]	*
*F:	*	*F:	*	*F:	*	*F:	*
*M2/1	*	*M2/1	*	*M2/1	*	*M2/1	*
*met(C|)	*	*met(C|)	*	*met(C|)	*	*met(C|)	*
=1	=1	=1	=1	=1	=1	=1	=1
*xywh-#693:1158,533,4280,829	*	*xywh-#508:2069,1380,3430,784	*	*xywh-#331:6555,1438,3627,711	*	*xywh-#145:6670,703,3568,764	*
!LO:TX:a:t=Communio.	!	!LO:TX:a:t=Communio.	!	!LO:TX:a:t=Co(m)monio	!	!LO:TX:a:t=Co(m)monio	!
1r	.	1G	Do-	1d	Do-	1B-	Do-
*	*	*lig	*	*	*	*	*
1D	Do-	1F	-mus.	2d\	-mus	2.A/	-mus
.	.	.	.	2d\	me-	.	.
.	.	.	.	.	.	4B-/	.
=2	=2	=2	=2	=2	=2	=2	=2
2C/	-mus	1G	.	2G/	-a	2c/	.
2BB-/	.	.	.	2.B-\	.	1d	me-
*lig	*	*Xlig	*	*	*	*	*
!LO:TX:t=P:problem=w Bassus nie ma zanotowanych bemoli "es", ale są oczywiste (częste skoki B-Es), może właśnie z powodu tej oczywistości nie zostały zapisane?	!	!	!	!	!	!	!
*	*	*lig	*	*	*ij	*	*
1E-X	me-	1G	me-	.	.	.	.
.	.	.	.	4A/	.	.	.
.	.	.	.	1G	do-	2c/	.
=3	=3	=3	=3	=3	=3	=3	=3
1D	.	1A	.	.	.	1d	-a.
.	.	.	.	2F/	.	.	.
*Xlig	*	*Xlig	*	*	*	*	*
*	*	*lig	*	*	*	*	*ij
2GG/	-a	1B-	.	1G	.	2r	.
*	*ij	*	*	*	*	*	*
1G	do-	.	.	.	.	2d\	do-
=4	=4	=4	=4	=4	=4	=4	=4
.	.	1A	.	2D/	-mus	2d\	-mus
2F\	-mus	.	.	1d	me-	2d\	me-
*lig	*	*Xlig	*	*	*	*	*
*	*	*lig	*	*	*	*	*
1E-X	me-	1G	.	.	.	2G/	.
.	.	.	.	2c\	.	1g	.
=5	=5	=5	=5	=5	=5	=5	=5
1D	.	1A	.	1d	.	.	.
.	.	.	.	.	.	2f\	.
*Xlig	*	*Xlig	*	*	*	*	*
*	*	*lig	*	*	*	*	*
1G	-a	1B-	-a.	2d\	-a	2g\	-a
*	*Xij	*	*	*	*Xij	*	*
.	.	.	.	2G/	do-	2d\	.
*	*	*	*	*	*	*	*Xij
=6	=6	=6	=6	=6	=6	=6	=6
2.C/	Do-	1G	.	2c\	-mus	2.e\	.
.	.	.	.	1c	o-	.	.
*custos:E	*	*	*	*	*	*	*
4D/	.	.	.	.	.	4f\	.
*	*	*	*	*	*	*custos:g	*
*	*	*Xlig	*	*	*	*	*
*	*	*custos:c	*	*	*	*	*
*xywh-#693:1331,1310,4090,754	*	*	*	*	*	*xywh-#145:6079,1463,4159,782	*
!LO:LB:g=original	!	!	!	!	!	!	!
4E\	.	1G	do-	.	.	2g\	.
4F\	.	.	.	.	.	.	.
!	!	!	!	!	!	!LO:LB:g=original	!
2G\	.	.	.	1B-	-ra-	4d\	.
.	.	.	.	.	.	4e\	.
!	!	!LO:LB:g=original	!	!	!	!	!
=7	=7	=7	=7	=7	=7	=7	=7
*	*	*lig	*	*	*	*	*
*	*	*xywh-#508:1313,2090,4191,824	*	*	*	*	*
1F	-mus	1c	.	.	.	2f\	Do-
*	*	*	*	*custos:B-	*	*	*
.	.	.	.	2A/	-ti-	2c/	.
*	*	*	*	*xywh-#331:5995,2127,4210,758	*	*	*
!	!	!	!	!LO:LB:g=original	!	!	!
2r	.	1d	.	2.B-\	-o-	2f\	-mus
2BB-/	o-	.	.	.	.	1f	o-
.	.	.	.	4A/	.	.	.
*	*	*Xlig	*	*	*	*	*
=8	=8	=8	=8	=8	=8	=8	=8
1C	-ra-	1c	-mus	4G/	.	.	.
.	.	.	.	4F/	.	.	.
.	.	.	.	2G/	-nis	2e\	-ra-
4D\	-ti-	1F	o-	2F/	.	2f\	-ti-
4E\	.	.	.	.	.	.	.
!	!	!	!	!LO:TX:t=P:problem=znak powtórzenia tekstu tutaj, a powinien być po pauzie	!	!	!
1F	-o-	.	.	2A/	.	2c/	-o-
=9	=9	=9	=9	=9	=9	=9	=9
.	.	1G	-ra-	1B-	.	2g\	-nis
2E\	-nis	.	.	.	.	2.g\	Vo-
*	*ij	*lig	*	*	*ij	*	*
1F	.	1A	-ti-	2r	.	.	.
.	.	.	.	.	.	4f\	.
.	.	.	.	2F/	o-	1f	-ca-
=10	=10	=10	=10	=10	=10	=10	=10
1C	do-	1c	.	1G	-ra-	.	.
.	.	.	.	.	.	2e\	.
*	*	*Xlig	*	*	*	*	*
2F\	-mus	1c	-o-	4A\	.	4f\	-bi-
.	.	.	.	4B-\	.	4g\	.
1F	o-	.	.	4c\	.	4a\	.
.	.	.	.	4A/	-ti-	4f\	.
=11	=11	=11	=11	=11	=11	=11	=11
.	.	1G	-nis	1B-	-o-	1g	.
2E\	-ra-	.	.	.	.	.	.
1F	-ti-	1A	vo-	2A/	-nis	0c	-tur.
*	*	*	*	*	*Xij	*	*
.	.	.	.	4c\	Vo-	.	.
.	.	.	.	4B-\	.	.	.
=12	=12	=12	=12	=12	=12	=12	=12
1F	-o-	1A	-ca-	4A/	.	.	.
.	.	.	.	4G/	.	.	.
.	.	.	.	1F	-ca-	.	.
*	*	*lig	*	*	*	*	*ij
1C	-nis	1G	.	.	.	1c	vo-
.	.	.	.	2E/	-bi-	.	.
*	*Xij	*	*	*	*	*	*
=13	=13	=13	=13	=13	=13	=13	=13
2r	.	1A	.	2F/	-tur	2c/	-ca-
*	*	*	*	*	*	*custos:c	*
*	*	*	*	*	*ij	*	*
2.F\	Vo-	.	.	1A	vo-	2c/	-bi-
*	*	*Xlig	*	*	*	*	*
*	*	*	*	*	*	*xywh-#145:6085,2187,4235,805	*
!	!	!	!	!	!	!LO:LB:g=original	!
.	.	1F	-bi-	.	.	2c/	-tur
4E\	.	.	.	.	.	.	.
4D/	.	.	.	2A/	-ca-	2.d\	.
*custos:BB-	*	*	*	*	*	*	*
4C/	.	.	.	.	.	.	.
*	*	*	*	*	*	*	*Xij
!LO:LB:g=original	!	!	!	!	!	!	!
=14	=14	=14	=14	=14	=14	=14	=14
*	*	*	*	*custos:c	*	*	*
*xywh-#693:1325,2048,4130,800	*	*	*	*	*	*	*
2BB-/	-ca-	1F	-tur.	1B-	.	.	.
.	.	.	.	.	.	4c/	.
2D/	.	.	.	.	.	1f	Di-
*	*	*lig	*	*	*	*	*
*	*	*	*	*xywh-#331:6003,2884,4193,758	*	*	*
!	!	!	!	!LO:LB:g=original	!	!	!
1C	-bi-	1G	.	1c	-bi-	.	.
.	.	.	.	.	.	2e\	-cit
=15	=15	=15	=15	=15	=15	=15	=15
*	*	*custos:B-	*	*	*	*	*
1BB-	-tur.	1B-	.	1d	-tur	2.f\	D(o-
.	.	.	.	.	.	4e\	-mi)-
!	!	!LO:LB:g=original	!	!	!	!	!
*	*	*Xlig	*	*	*Xij	*	*
*	*	*lig	*	*	*	*	*
*	*	*xywh-#508:1338,2900,4127,732	*	*	*	*	*
1r	.	1B-	di-	2r	.	1d	-n(us)
.	.	.	.	1f	Di-	.	.
=16	=16	=16	=16	=16	=16	=16	=16
1C	di-	1G	.	.	.	2c/	.
.	.	.	.	2e\	-cit	2.g\	.
*	*	*Xlig	*	*	*	*	*
*	*	*lig	*	*	*	*	*
2F\	-cit	1A	-cit	2f\	do-	.	.
.	.	.	.	.	.	4f\	.
2A\	.	.	.	2c\	-mi-	1f	.
=17	=17	=17	=17	=17	=17	=17	=17
1G	Do-	1B-	.	2d\	-nus	.	.
.	.	.	.	2G/	.	2e\	/di-
*	*	*Xlig	*	*	*	*	*
*	*	*lig	*	*	*ij	*	*
2F\	-mi-	1A	.	1c	.	2f\	.
1F	-nus.	.	.	.	.	2c/	-cit
=18	=18	=18	=18	=18	=18	=18	=18
.	.	1G	.	2B-\	di-	2d\	.
2E\	.	.	.	2G/	.	2e\	.
*	*	*Xlig	*	*	*	*	*
2.D/	.	1F	Do-	1A	.	2.f\	D(o-
4C/	.	.	.	.	.	4e\	.
=19	=19	=19	=19	=19	=19	=19	=19
2BB-/	.	1F	-mi-	2D/	-cit	2d\	.
2AA/	.	.	.	1F	do-	2c/	.
*	*ij	*lig	*	*	*	*	*
1GG	.	1G	.	.	.	1B-	.
.	.	.	.	2E/	.	.	.
=20	=20	=20	=20	=20	=20	=20	=20
2FF/	.	1A	.	2F/	.	2A/	.
1F	di-	.	.	2F/	-mi-	1c	-mi)-
*	*	*Xlig	*	*	*	*	*
*	*	*lig	*	*	*	*	*
.	.	1G	.	2C/	-nus	.	.
*	*	*	*	*	*	*custos:A	*
2E\	-cit	.	.	1c	do-	2G/	-n(us)
!	!	!	!	!	!	!LO:LB:g=original	!
=21	=21	=21	=21	=21	=21	=21	=21
*	*	*	*	*	*	*	*ij
*	*	*	*	*	*	*xywh-#145:6096,2941,4177,863	*
2F\	Do-	1F	.	.	.	2A/	di-
2D/	-mi-	.	.	2B-\	-mi-	2d\	.
*custos:C	*	*	*	*	*	*	*
*	*	*Xlig	*	*	*	*	*
*xywh-#693:1327,2767,4182,898	*	*	*	*	*	*	*
2C/	-nus	1G	.	2c\	-nus	2e\	-cit
*	*Xij	*	*	*	*	*	*
*	*	*	*	*custos:c	*	*	*
!LO:LB:g=original	!	!	!	!	!	!	!
2BB-/	in	.	.	2d\	.	1f	D(o-
!	!	!	!	!LO:LB:g=original	!	!	!
=22	=22	=22	=22	=22	=22	=22	=22
*lig	*	*lig	*	*	*	*	*
*	*	*	*	*xywh-#332:1324,658,4157,776	*	*	*
1C	e-	1G	-nus.	2.c\	di-	.	.
.	.	.	.	.	.	2e\	-mi)-
.	.	.	.	4B-\	.	.	.
1D	.	1F	.	4A/	.	0f	-n(us)
.	.	.	.	4G/	.	.	.
.	.	.	.	2.A/	.	.	.
*Xlig	*	*Xlig	*	*	*	*	*Xij
=23	=23	=23	=23	=23	=23	=23	=23
2D/	-a	1F	in	.	.	.	.
.	.	.	.	4G/	-cit	.	.
2D/	o(m-	.	.	1F	do-	.	.
*	*	*lig	*	*	*	*	*
1C	-n)is	1G	e.-	.	.	2r	.
.	.	.	.	2E/	-mi-	1c	in
=24	=24	=24	=24	=24	=24	=24	=24
*	*ij	*	*	*	*	*	*
*	*	*custos:A	*	*	*	*	*
2r	.	1A	.	1F	-nus	.	.
1F	in	.	.	.	.	2c/	e-
!	!	!LO:LB:g=original	!	!	!	!	!
*	*	*Xlig	*	*	*Xij	*	*
*	*	*xywh-#508:5955,571,4225,882	*	*	*	*	*
.	.	1A	-a	2r	.	2.c/	-a
2F\	e-	.	.	1c	in	.	.
.	.	.	.	.	.	4B-/	.
=25	=25	=25	=25	=25	=25	=25	=25
*	*	*lig	*	*	*	*	*
1F	-a	1A	o-	.	.	4A/	.
.	.	.	.	.	.	4G/	.
.	.	.	.	2c\	e-	1F	om-
1C	o(m-	1G	.	2.c\	-a	.	.
.	.	.	.	.	.	2E/	-nis
.	.	.	.	4B-\	.	.	.
*	*	*Xlig	*	*	*	*	*
=26	=26	=26	=26	=26	=26	=26	=26
*	*	*lig	*	*	*	*	*ij
2FF/	.	1A	.	4A/	.	2F/	.
.	.	.	.	4G/	.	.	.
2F\	.	.	.	2F/	o-	2c/	in
2C/	.	1c	.	2G/	.	2e\	e-
1F	.	.	.	2A/	.	2f\	.
*	*	*Xlig	*	*	*	*	*
=27	=27	=27	=27	=27	=27	=27	=27
*	*	*lig	*	*	*	*	*
.	.	1G	.	1B-	.	1g	.
2E\	.	.	.	.	.	.	.
1F	-n)is	1A	.	2A/	-mnis	2c/	-a
*	*Xij	*	*	*	*ij	*	*Xij
.	.	.	.	2c\	in	2.f\	o-
*	*	*Xlig	*	*	*	*	*
=28	=28	=28	=28	=28	=28	=28	=28
2r	.	1F	-mnis	2c\	e-	.	.
.	.	.	.	.	.	4e\	.
2BB-/	qui	.	.	1B-	-a	4d\	.
.	.	.	.	.	.	4c/	.
*lig	*	*	*	*	*	*	*
*	*	*	*	*	*	*custos:c	*
1D	pe.-	1F	qui	.	.	1d	.
.	.	.	.	4A/	om-	.	.
*	*	*	*	*custos:A	*	*	*
.	.	.	.	4G/	.	.	.
!	!	!	!	!LO:LB:g=original	!	!LO:LB:g=original	!
=29	=29	=29	=29	=29	=29	=29	=29
*custos:F	*	*	*	*	*	*	*
*	*	*lig	*	*	*	*	*
*	*	*	*	*xywh-#332:1352,1400,4171,818	*	*xywh-#146:1589,658,4125,840	*
1F	.	1A	pe-	2A/	-nis	2c/	-mnis
*	*	*	*	*	*Xij	*	*
.	.	.	.	2F/	qui	2c/	qui
!LO:LB:g=original	!	!	!	!	!	!	!
*Xlig	*	*	*	*	*	*	*
*xywh-#693:5955,656,4216,783	*	*	*	*	*	*	*
1F	-tit	1c	.	1A	pe-	4f\	pe-
.	.	.	.	.	.	4g\	.
.	.	.	.	.	.	4a\	.
.	.	.	.	.	.	4f\	.
*	*	*Xlig	*	*	*	*	*
=30	=30	=30	=30	=30	=30	=30	=30
2E\	ac-	1c	-tit	2c\	-tit	4g\	-tit
.	.	.	.	.	.	4f\	.
2F\	-ci-	.	.	2A/	ac-	1f	ac-
*	*	*lig	*	*	*	*	*
1C	-pit	1c	ac-	1G	-ci-	.	.
.	.	.	.	.	.	2e\	.
=31	=31	=31	=31	=31	=31	=31	=31
2.D/	.	1A	.	2F/	-pit	2.f\	-ci-
*	*	*	*	*	*ij	*	*
.	.	.	.	1A	qui	.	.
4C/	.	.	.	.	.	4e\	.
*	*	*Xlig	*	*	*	*	*
*	*	*lig	*	*	*	*	*
1BB-	.	1B-	.	.	.	1d	-pit
.	.	.	.	2G/	pe-	.	.
=32	=32	=32	=32	=32	=32	=32	=32
2AA/	.	1c	.	1A	-tit	2c/	.
*	*	*	*	*	*	*	*ij
2FF/	.	.	.	.	.	2A/	qui
*	*	*Xlig	*	*	*	*	*
*	*	*lig	*	*	*	*	*
4GG/	.	1B-	-ci-	2G/	ac-	1d	pe-
4AA/	.	.	.	.	.	.	.
4BB-/	.	.	.	1G	-ci-	.	.
4C/	.	.	.	.	.	.	.
=33	=33	=33	=33	=33	=33	=33	=33
1D	.	1A	.	.	.	2d\	-tit
.	.	.	.	4F/	.	2d\	ac-
.	.	.	.	4E/	.	.	.
*	*	*Xlig	*	*	*	*	*
*	*	*custos:A	*	*	*	*	*
1D	e(t)	1A	-pit	1F	-pit	1d	-ci-
*	*	*	*	*	*Xij	*	*
!	!	!LO:LB:g=original	!	!	!	!	!
=34	=34	=34	=34	=34	=34	=34	=34
*	*	*xywh-#508:5960,1361,4225,858	*	*	*	*	*
1F	qui	1A	e(t)	2r	.	1c	-pit
*	*	*	*	*	*	*	*Xij
.	.	.	.	1A	Et	.	.
2F\	que-	1c	qui	.	.	2r	.
4E\	.	.	.	4G/	.	1g	e(t)
4D/	-rit	.	.	4F/	.	.	.
=35	=35	=35	=35	=35	=35	=35	=35
2E\	in-	1c	que-	2G/	.	.	.
2F\	-ue-	.	.	2A/	qui	1f	qui
*	*	*lig	*	*	*	*	*
1D	-nit	1B-	-rit	1F	que-	.	.
.	.	.	.	.	.	4e\	que-
*	*	*	*	*	*	*custos:e	*
.	.	.	.	.	.	4d\	.
!	!	!	!	!	!	!LO:LB:g=original	!
=36	=36	=36	=36	=36	=36	=36	=36
*	*	*	*	*custos:F	*	*	*
*	*	*	*	*	*	*xywh-#146:1595,1458,4096,805	*
1C	.	1c	.	1G	.	4e\	-rit
.	.	.	.	.	.	2f\	in-
.	.	.	.	.	.	4e\	-ue-
!	!	!	!	!LO:LB:g=original	!	!	!
*	*ij	*Xlig	*	*	*	*	*
*	*	*	*	*xywh-#332:1359,2142,4164,811	*	*	*
2r	.	1A	in-	2F/	-rit	1f	-nit
*custos:D	*	*	*	*	*	*	*
2D/	et	.	.	2.F/	in-	.	.
!LO:LB:g=original	!	!	!	!	!	!	!
=37	=37	=37	=37	=37	=37	=37	=37
*	*	*lig	*	*	*	*	*ij
*xywh-#693:5979,1358,4280,800	*	*	*	*	*	*	*
2D/	qui	1F	-ue-	.	.	1A	e(t)
.	.	.	.	4E/	-ue-	.	.
1F	que-	.	.	2D/	-nit	.	.
.	.	1G	.	2C/	.	2c/	qui
*	*	*	*	*	*ij	*	*
2E\	.	.	.	2G/	et	2c/	que-
*	*	*Xlig	*	*	*	*	*
=38	=38	=38	=38	=38	=38	=38	=38
*	*	*lig	*	*	*	*	*
2D/	.	1A	.	2F/	.	2d\	 rit
2C/	.	.	.	2E/	qui	2A/	in-
1BB-	.	1G	.	1D	que-	4B-/	-ue-
.	.	.	.	.	.	4c/	.
.	.	.	.	.	.	4d\	.
.	.	.	.	.	.	4B-/	.
*	*	*Xlig	*	*	*	*	*
=39	=39	=39	=39	=39	=39	=39	=39
*	*	*lig	*	*	*	*	*
2AA/	-rit	1A	.	2E/	-rit	2c/	.
2FF/	in-	.	.	2F/	in-	1f	.
1C	-ue-	1c	.	1G	-ue-	.	.
.	.	.	.	.	.	2e\	.
*	*	*Xlig	*	*	*	*	*
=40	=40	=40	=40	=40	=40	=40	=40
2D/	-nit	1A	-nit	1F	-nit	0f	-nit
*	*Xij	*	*	*	*Xij	*	*Xij
2D/	e(t)	.	.	.	.	.	.
1.F	pul-	1A	e(t)	2r	.	.	.
.	.	.	.	1A	e(t)	.	.
=41	=41	=41	=41	=41	=41	=41	=41
.	.	1c	pul-	.	.	2r	.
2E\	-ſan-	.	.	2G/	pul-	2e\	Et
*	*	*lig	*	*	*	*	*
2D/	-ti	1B-	-ſan-	1F	-ſan-	2f\	.
2BB-/	.	.	.	.	.	2d\	pul-
=42	=42	=42	=42	=42	=42	=42	=42
*	*	*custos:c	*	*	*	*	*
2r	.	1A	.	2F/	-ti	2c/	-ſa(n)-
*	*ij	*	*	*	*ij	*	*
1F	et	.	.	1A	et	1f	-ti
!	!	!LO:LB:g=original	!	!	!	!	!
*	*	*Xlig	*	*	*	*	*
*	*	*lig	*	*	*	*	*
*	*	*xywh-#508:5925,2058,4248,899	*	*	*	*	*
.	.	1c	.	.	.	.	.
*	*	*	*	*	*	*custos:d	*
2F\	pul-	.	.	2A/	pul-	2f\	.
!	!	!	!	!	!	!LO:LB:g=original	!
=43	=43	=43	=43	=43	=43	=43	=43
*custos:C	*	*	*	*	*	*	*
*	*	*	*	*	*	*lig	*
*	*	*	*	*	*	*xywh-#146:1612,2211,4113,793	*
1BB-	-ſan-	1B-	.	4G/	-ſan-	1d	.
.	.	.	.	4F/	.	.	.
.	.	.	.	1F	.	.	.
*	*	*Xlig	*	*	*	*	*
*	*	*lig	*	*	*	*	*
*xywh-#693:5967,2130,4211,777	*	*	*	*	*	*	*
!LO:LB:g=original	!	!	!	!	!	!	!
1C	.	1G	-ti	.	.	1c	.
*	*	*	*	*custos:F	*	*	*
.	.	.	.	2E/	.	.	.
!	!	!	!	!LO:LB:g=original	!	!	!
*	*	*	*	*	*	*Xlig	*
=44	=44	=44	=44	=44	=44	=44	=44
*	*	*	*	*xywh-#332:1380,2863,4129,797	*	*	*
2FF/	-ti	1A	.	2F/	-ti	2c/	a
*	*Xij	*	*	*	*Xij	*	*
2F\	A-	.	.	2A/	e(t)	2c/	pe-
*	*	*Xlig	*	*	*	*	*
*	*	*lig	*	*	*	*	*
2BB-/	-pe-	1F	a-	2B-\	pul-	2d\	-ri-
2D/	-ri-	.	.	2B-\	-ſan-	1f	-e-
=45	=45	=45	=45	=45	=45	=45	=45
1C	-e-	1G	.	1c	-(ti)	.	.
.	.	.	.	.	.	2e\	-tur
*	*	*Xlig	*	*	*	*	*
*	*	*lig	*	*	*	*	*
1FF	-tur.	1F	-pe-	2A/	a-	2f\	.
.	.	.	.	1d	-pe-	2.f\	.
=46	=46	=46	=46	=46	=46	=46	=46
0r	.	1A	.	.	.	.	.
.	.	.	.	.	.	4e\	.
.	.	.	.	1c	-ri-	4d\	.
.	.	.	.	.	.	4c\	.
*	*ij	*Xlig	*	*	*	*	*ij
.	.	1G	.	.	.	1d	a-
.	.	.	.	2B-\	-e-	.	.
=47	=47	=47	=47	=47	=47	=47	=47
1C	a-	1c	.	2c\	-tur.	1e	.
*	*	*	*	*	*ij	*	*
.	.	.	.	2.G/	a-	.	.
*	*	*lig	*	*	*	*	*
2.G\	-pe-	1B-	.	.	.	2d\	.
.	.	.	.	4A\	.	.	.
.	.	.	.	2B-\	.	1g	-pe-
4F\	.	.	.	.	.	.	.
=48	=48	=48	=48	=48	=48	=48	=48
2E\	.	1c	.	2G/	.	.	.
2.F\	.	.	.	2.A/	-pe-	4f\	.
.	.	.	.	.	.	4e\	.
*	*	*Xlig	*	*	*	*	*
.	.	1A	-ri-	.	.	2.f\	.
4E\	.	.	.	4G/	-ri-	.	.
4D/	-ri-	.	.	1c	-e-	.	.
4C/	.	.	.	.	.	4e\	.
=49	=49	=49	=49	=49	=49	=49	=49
1D	-e-	1F	-e-	.	.	4d\	-ri-
.	.	.	.	.	.	4c\	.
.	.	.	.	2B-\	.	1f	-e-
*custos:FF	*	*	*	*	*	*	*
*	*	*lig	*	*	*	*	*
1C	.	1G	.	0c	-tur	.	.
*	*	*	*	*	*	*custos:f	*
.	.	.	.	.	.	2e\	.
!LO:LB:g=original	!	!	!	!	!	!LO:LB:g=original	!
=50	=50	=50	=50	=50	=50	=50	=50
*xywh-#693:5971,2863,4072,829	*	*	*	*	*	*xywh-#146:1588,2950,2271,614	*
1FF	-tur	1F	.	.	.	1f	-tur
*	*Xij	*Xlig	*	*	*	*	*
!	!	!LO:N:vis=0	!	!	!	!	!
!	!	!LO:TX:t=P:problem=w źródle 0 zamiast 00.	!	!	!	!	!
2F\	A-	[1F;l	-tur	2A/	a-	2c/	a-
1BB-	-pe-	.	.	1d	-pe-	1B-	-pe-
=51	=51	=51	=51	=51	=51	=51	=51
.	.	0F_	.	.	.	.	.
2F\	-ri-	.	.	2c\	-ri-	2A/	-ri-
0BB-	-e-	.	.	1.B-	-e-	0d	-e-
=52	=52	=52	=52	=52	=52	=52	=52
.	.	0F]	.	.	.	.	.
.	.	.	.	4A/	.	.	.
.	.	.	.	4G/	.	.	.
!LO:N:vis=0	!	!	!	!LO:N:vis=0	!	!LO:N:vis=0	!
1FF;	-tur	.	.	1A;;	-tur	1c;<	-tur
==	==	==	==	==	==	==	==
*-	*-	*-	*-	*-	*-	*-	*-
!!!system-decoration: [(s1,s2,s3,s4)]
!!!RDF**kern: l = terminal long
!!!RDF**kern: > = above
!!!RDF**kern: < = below
!!!ENC: Mateusz Solarz
!!!END: 2022-03-08
!!!ENC: Jan Barakat
!!!END: 2022-03-14
!!!ENC-iiif: Elżbieta Cabała
!!!END-iiif: 2022-09-09
